X:76
T:Bonapart Crossing the Rhine
R:reel
M:2/4
L:1/8
Q:130
K:D
FG|:"D"A>B AF|A2 de|f>d fa|d2 dc|"G"B>c dB|!
|1"D"AF DF|"A7"E2 E>F|E2F>G:|2"D"AF "A7"E/F/E|"D"(D4|D2)de||!
"D"f>e fg|a2 AA|"G"B>A Bc|d3A|!
"G"B>c dB|"D"AF DF|"A7"E2E>F|E2 FG|!
"D"A>B AF|A2 de|f>e fa|"D"d2 dc|!
"G"B>c dB|"A7"AF E/F/E|"D"D>D FA|d2||
